dist/img/conference_tab.svg

<svg width="834" height="472" fill="none" xmlns="http://www.w3.org/2000/svg"><path fill="#13191D" d="M0 0h834v472H0z"/><path fill-rule="evenodd" clip-rule="evenodd" d="M468 176h-57.696l-31.21 30.769h57.687v153.834H228V416h31.219v-24.62H468V176zM228 299.074v30.772h177.628V237.54H259.219v-30.771h93.752L384.181 176H228v92.306h146.409v30.768H228z" fill="#CA1217" fill-opacity=".2"/></svg>

<svg width="834" height="472" viewBox="0 0 834 472" fill="none" xmlns="http://www.w3.org/2000/svg">
<rect width="834" height="472" fill="#13191D"/>
<path fill-rule="evenodd" clip-rule="evenodd" d="M468 176H410.304L379.094 206.769H436.781V360.603H228V416H259.219V391.38H468V176ZM228 299.074V329.846H405.628V237.54H259.219V206.769H352.971L384.181 176H228V268.306H374.409V299.074H228Z" fill="#CA1217" fill-opacity="0.2"/>
</svg>
